X:3502
T:Inverneill House
P:MacLeod and MacKay
C:J. Scott Skinner
R:Reel (8x32)
B:RSCDS 35-2
Z:Anselm Lingnau <anselm@strathspey.org>
M:4/4
L:1/8
K:G
|:dc|"G"BGFG DGFG|"Am"E^GAB c2ed|cA^GA "A7"EAGA|"D"FAd^c "D7"d=cBA|
     "G"BGFG DGFG|"Am"E^GAB c2ed|"D7"cBAG FDEF|"G"AGDB, G,2:|
|:dc|"G"Bgfg dBGB|"Am"ca^ga ec"D7"Ac|"G"Bgfg dBGB|"D"Fd^cd "D7"AFD=c|
    |"G"Bgfg dBGB|"Am"ca^ga ec"D7"Ac|"G"BgdB "Am"AecA|"D7"FDEF "G"G2:|

